X: 4
T: The Wandering Minstrel
R: jig
M: 6/8
L: 1/8
K: Dmaj
|:B|Add BAF|Ade fdB|Add BAF|AFD EDE|Add BAF|Ade fdB|AdB AFE|FDD D2:||:B|Ade ~f3|efg fdB|Ade f2e|fdB BAF|Ade ~f3|efg fdA|~B3 AFE|FDD D2:|


Tune 2025	Setting 15434

